src/components/Icon/svg-icon/main/chart-donut.svg

<svg xmlns="http://www.w3.org/2000/svg" width="24" height="24"><path fill="#677078" d="M13 5.08A7 7 0 0118.92 11h3.03c-.47-4.72-4.23-8.48-8.95-8.95v3.03zM18.92 13A7 7 0 0113 18.92v3.03c4.72-.47 8.48-4.23 8.95-8.95h-3.03zM11 18.92c-3.39-.49-6-3.4-6-6.92s2.61-6.43 6-6.92V2.05c-5.05.5-9 4.76-9 9.95 0 5.19 3.95 9.45 9 9.95v-3.03z"/></svg>

<svg xmlns="http://www.w3.org/2000/svg" width="24" height="24" viewBox="0 0 24 24">
  <path fill="#677078" d="M13,5.08 C16.06,5.52 18.48,7.94 18.92,11 L21.95,11 C21.48,6.28 17.72,2.52 13,2.05 L13,5.08 L13,5.08 Z M18.92,13 C18.48,16.06 16.06,18.48 13,18.92 L13,21.95 C17.72,21.48 21.48,17.72 21.95,13 L18.92,13 L18.92,13 Z M11,18.92 C7.61,18.43 5,15.52 5,12 C5,8.48 7.61,5.57 11,5.08 L11,2.05 C5.95,2.55 2,6.81 2,12 C2,17.19 5.95,21.45 11,21.95 L11,18.92 Z"/>
</svg>
